assets/icons/lightbulb.svg

<!DOCTYPE svg PUBLIC "-//W3C//DTD SVG 1.1//EN" "http://www.w3.org/Graphics/SVG/1.1/DTD/svg11.dtd">

<!-- Uploaded to: SVG Repo, www.svgrepo.com, Transformed by: SVG Repo Mixer Tools -->
<svg width="800px" height="800px" viewBox="0 0 24 24" fill="none" xmlns="http://www.w3.org/2000/svg">

<g id="SVGRepo_bgCarrier" stroke-width="0"/>

<g id="SVGRepo_tracerCarrier" stroke-linecap="round" stroke-linejoin="round"/>

<g id="SVGRepo_iconCarrier"> <path d="M10 19.5H14M10.6667 22H13.3333" stroke="#E4DCCF" stroke-width="1.5" stroke-linecap="round"/> <path d="M7.41058 13.6805L8.51463 14.7196C8.82437 15.0112 9 15.4177 9 15.843C9 16.482 9.518 17 10.157 17H13.843C14.482 17 15 16.482 15 15.843C15 15.4177 15.1756 15.0112 15.4854 14.7196L16.5894 13.6805C18.1306 12.2187 18.9912 10.2984 18.9999 8.30193L19 8.21807C19 4.8069 15.866 2 12 2C8.13401 2 5 4.8069 5 8.21807L5.00007 8.30193C5.00875 10.2984 5.86939 12.2187 7.41058 13.6805Z" stroke="#E4DCCF" stroke-width="1.5"/> </g>

</svg>

<svg xmlns="http://www.w3.org/2000/svg" width="800" height="800" fill="none" viewBox="0 0 24 24"><g stroke="#E4DCCF" stroke-width="1.5"><path stroke-linecap="round" d="M10 19.5h4M10.667 22h2.666"/><path d="m7.41 13.68 1.105 1.04c.31.291.485.698.485 1.123C9 16.482 9.518 17 10.157 17h3.686c.639 0 1.157-.518 1.157-1.157 0-.425.176-.832.485-1.123l1.104-1.04c1.542-1.461 2.402-3.382 2.41-5.378L19 8.218C19 4.807 15.866 2 12 2S5 4.807 5 8.218v.084c.009 1.996.87 3.917 2.41 5.379Z"/></g></svg>
